img/svg/net/kmeleon.svg

<?xml version="1.0" encoding="iso-8859-1"?>
<!-- Generator: Adobe Illustrator 21.0.2, SVG Export Plug-In . SVG Version: 6.00 Build 0)  -->
<svg version="1.1" id="&#x56FE;&#x5C42;_1" xmlns="http://www.w3.org/2000/svg" xmlns:xlink="http://www.w3.org/1999/xlink" x="0px"
	 y="0px" viewBox="0 0 16 16" style="enable-background:new 0 0 16 16;" xml:space="preserve">
<g>
	<path d="M8.764,8.111c0.295-0.012,0.512-0.19,0.511-0.483c0-0.244-0.161-0.431-0.475-0.402C8.486,7.172,8.364,7.389,8.362,7.65
		C8.361,7.885,8.464,8.123,8.764,8.111z"/>
	<path d="M8,1C4.134,1,1,4.134,1,8c0,3.866,3.134,7,7,7s7-3.134,7-7C15,4.134,11.866,1,8,1z M13.198,8.703
		c-0.398,0.483-0.34,1.051-0.361,1.621c-0.037,1.018-0.908,1.877-2.083,2.14c-0.995,0.223-1.871-0.065-2.695-0.593
		c-1.074-0.687-2.233-1.137-3.503-1.301c-0.373-0.048-0.727,0.036-1.183,0.121c0.413-0.499,0.749-0.916,1.391-0.903
		c0.156,0.003,0.316-0.107,0.47-0.175c0.56-0.245,1.107-0.248,1.649,0.057c0.243,0.137,0.521,0.22,0.741,0.384
		c1.081,0.803,2.086,0.579,3.051-0.2c0.3-0.242,0.609-0.478,0.833-0.807c0.147-0.216,0.272-0.512,0.651-0.303
		c0.115,0.063,0.247-0.071,0.216-0.217C12.349,8.4,12.278,8.211,12.11,8.27c-0.194,0.068-0.431,0.096-0.564,0.273
		c-1.011,1.342-2.658,1.789-4.145,1.082c-0.695-0.33-1.415-0.537-2.175-0.611C5.01,8.993,4.791,9.003,4.573,9.006
		C4.348,9.009,4.119,9.273,3.925,9.111C3.681,8.907,3.498,8.623,3.315,8.356C3.184,8.165,3.392,8.128,3.5,8.07
		c0.424-0.227,0.88-0.372,1.335-0.519c1.058-0.342,2.122-0.662,3.134-1.134c0.72-0.336,1.81,0.104,2.081,0.801
		c0.124,0.319,0.054,0.535-0.3,0.563C9.295,7.818,9.135,8.128,9.033,8.49C8.929,8.859,8.716,8.962,8.337,8.842
		C7.673,8.63,7.462,8.118,7.431,7.352C7.106,7.906,7.268,8.287,7.534,8.601C8.03,9.186,8.66,9.522,9.459,9.412
		c0.392-0.054,0.694-0.197,0.609-0.687c-0.026-0.154-0.005-0.315,0.1-0.44c0.442-0.529,0.285-1.078-0.031-1.558
		C9.77,6.168,9.193,6.021,8.531,6.175c1.057-0.598,2.016-1.328,3.003-2.017c0.236-0.165,0.521-0.183,0.791-0.242
		c0.29-0.063,0.403,0.165,0.454,0.366c0.341,1.348,0.677,2.7,0.51,4.111C13.275,8.5,13.261,8.627,13.198,8.703z"/>
</g>
</svg>

<svg xmlns="http://www.w3.org/2000/svg" viewBox="0 0 16 16"><title>kmeleon</title><path d="M8.76,8.11a.48.48,0,0,0,.51-.48.39.39,0,0,0-.48-.4c-.31-.05-.44.16-.44.42S8.46,8.12,8.76,8.11Z"/><path d="M8,1a7,7,0,1,0,7,7A7,7,0,0,0,8,1Zm5.2,7.7a2.45,2.45,0,0,0-.36,1.62,2.46,2.46,0,0,1-2.08,2.14,3.44,3.44,0,0,1-2.69-.59,8.44,8.44,0,0,0-3.5-1.3,3.81,3.81,0,0,0-1.18.12c.41-.5.75-.92,1.39-.9a1.27,1.27,0,0,0,.47-.17,1.75,1.75,0,0,1,1.65.06,6.78,6.78,0,0,1,.74.38,2.26,2.26,0,0,0,3.05-.2A3.91,3.91,0,0,0,11.51,9c.15-.22.27-.51.65-.3.12.06.25-.07.22-.22s-.1-.32-.27-.26-.43.1-.56.27A3.3,3.3,0,0,1,7.4,9.63,6.48,6.48,0,0,0,5.23,9a6,6,0,0,0-.65,0c-.23,0-.45.27-.65.11a3.63,3.63,0,0,1-.61-.75c-.13-.19.08-.23.18-.29a8,8,0,0,1,1.34-.52A26.92,26.92,0,0,0,8,6.42a1.68,1.68,0,0,1,2.08.8c.12.32.05.54-.3.56s-.61.35-.72.71-.32.47-.7.35c-.66-.21-.87-.72-.91-1.49a1,1,0,0,0,.1,1.25,2.06,2.06,0,0,0,1.93.81c.39-.05.69-.2.61-.69a.53.53,0,0,1,.1-.44,1.21,1.21,0,0,0,0-1.56,1.39,1.39,0,0,0-1.61-.55c1.06-.6,2-1.33,3-2a2.08,2.08,0,0,1,.79-.24c.29-.06.4.17.45.37a11.26,11.26,0,0,1,.51,4.11A.62.62,0,0,1,13.2,8.7Z"/></svg>
